X:235
T:le rêve du quêteux
S:Tony McManus - Ceol Mor
Z:robin.beech@mcgill.ca
M:4/4
L:1/8
K:F
cB |: AF (3FFF EFGA | B3A BABd | c3d cBAc |
BAGB AGFA \
M:3/2
|1 GECE GFFE F2cB :|2 GECE GFFE F4 |:
M:3/2
f2cf Afcf aggf | g2dg Bgdg bgge |
f2cf Afcf agfe | fdcA B2GB A2FA | GECE GFFE F4 :|
